X:146
T:Engelska från Tolg
R:Engelska
D:Björlert, Löfberg, Pekkari - Mikaelidansen
Z:Transkription till abc av Jon Magnusson
O:Tolg, Småland
M:2/4
L:1/8
K:D
AF D2| AF D2|Bc dB| A2 F2|AF D2| AF D2|E2- E/2F/2E/2D/2| E4|
AF D2| AF D2|Bc dB| A2 F2|AF DF| GE CE|E2 D2| D4:|:
AB cd| ef e2|af df| fe cA|AB cd| ef e2|ec Ac| B4|
AB cd| ef e2|af df| fe cA|AB cd| ef e2|cA B^G| A4:|(:musicend:)

(:music:)
